static/images/sports-room-logo-header.svg

<?xml version="1.0" encoding="UTF-8"?>
<svg width="289px" height="46px" viewBox="0 0 289 46" version="1.1" xmlns="http://www.w3.org/2000/svg" xmlns:xlink="http://www.w3.org/1999/xlink">
    <!-- Generator: sketchtool 42 (36781) - http://www.bohemiancoding.com/sketch -->
    <title>4393F04C-D5D2-46EE-AA00-17098240BBA0</title>
    <desc>Created with sketchtool.</desc>
    <defs>
        <polygon id="path-1" points="0.0143530201 0.255395833 16.241994 0.255395833 16.241994 35.4249833 0.0143530201 35.4249833 0.0143530201 0.255395833"></polygon>
    </defs>
    <g id="Desktop" stroke="none" stroke-width="1" fill="none" fill-rule="evenodd">
        <g id="Desktop---Homepage" transform="translate(-379.000000, -6241.000000)">
            <g id="Sports-room-logo-header" transform="translate(379.000000, 6241.000000)">
                <path d="M0,26.4402729 L1.57155872,26.4402729 C4.60314933,31.4327104 7.69050336,33.8735854 11.1148624,33.8735854 C13.9777081,33.8735854 15.437255,32.3757104 15.437255,30.3234396 C15.437255,27.8825646 13.6969513,26.7732938 8.3082651,25.2198354 C2.41382886,23.5556896 0.0562483221,21.7252729 0.0562483221,17.6753562 C0.0562483221,12.5166479 4.21038087,9.13277292 10.3850889,9.13277292 C12.7994027,9.13277292 15.2127466,9.90950208 16.7285419,10.8525021 L18.1323255,9.13277292 L19.5913876,9.13277292 L19.5913876,17.3428146 L18.0198289,17.3428146 C15.2127466,13.1271062 13.0234262,10.8525021 9.93607215,10.8525021 C7.57849161,10.8525021 5.89395134,12.2947937 5.89395134,14.5693979 C5.89395134,16.8435229 8.13952013,17.7865229 12.012896,18.7295229 C17.9635805,20.2273979 21.1071829,22.2796687 21.1071829,26.8288771 C21.1071829,31.8208354 16.9530503,35.6488979 10.6095973,35.6488979 C8.53277349,35.6488979 4.71564597,34.7058979 3.19985067,33.7628979 L1.5157953,35.6488979 L0,35.6488979 L0,26.4402729 Z" id="Fill-1" fill="#27A9E1"></path>
                <path d="M44.4028619,22.3353 C44.4028619,16.51055 42.5505465,12.350425 38.564674,12.350425 C36.8806186,12.350425 35.3648233,13.0715708 33.7370163,14.3475917 L33.7370163,30.1567375 C34.9162914,32.9306333 36.7686069,33.8736333 38.9579273,33.8736333 C42.2702747,33.8736333 44.4028619,30.3790708 44.4028619,22.3353 L44.4028619,22.3353 Z M22.4534089,44.3578 C25.6537445,44.3022167 26.2710213,43.8034042 26.2710213,42.3606333 L26.2710213,14.069675 C26.2710213,12.4055292 25.5974961,11.407425 22.3976455,11.3518417 L22.3976455,9.96513333 L33.6245196,9.46584167 L33.6245196,12.8497167 C36.1508451,10.6862792 38.6771706,9.13282083 41.9327847,9.13282083 C48.5569945,9.13282083 52.3178737,14.3475917 52.3178737,22.0027583 C52.3178737,29.4355917 47.995481,35.5933625 40.4169894,35.5933625 C37.7228888,35.5933625 35.7023133,35.0940708 33.7370163,34.206175 L33.7370163,42.3606333 C33.7370163,43.8034042 34.7475465,44.2471125 39.0141757,44.3578 L39.0141757,45.7445083 L22.4534089,45.7445083 L22.4534089,44.3578 Z" id="Fill-3" fill="#27A9E1"></path>
                <path d="M74.0428183,22.3353 C74.0428183,14.5138625 72.2462663,10.7418625 68.2608787,10.7418625 C64.2750062,10.7418625 62.9279559,14.5138625 62.9279559,22.3353 C62.9279559,30.1567375 64.724023,33.9848 68.7656589,33.9848 C72.6390347,33.9848 74.0428183,30.1567375 74.0428183,22.3353 M54.9566958,22.4459875 C54.9566958,14.2920083 60.345382,9.02213333 68.5411505,9.02213333 C76.9056639,9.02213333 82.0703267,14.069675 82.0703267,22.2246125 C82.0703267,30.434175 76.6249072,35.70405 68.5411505,35.70405 C60.0088619,35.70405 54.9566958,30.6560292 54.9566958,22.4459875" id="Fill-5" fill="#27A9E1"></path>
                <g id="Group-9" transform="translate(109.102349, 0.223915)">
                    <mask id="mask-2" fill="white">
                        <use xlink:href="#path-1"></use>
                    </mask>
                    <g id="Clip-8"></g>
                    <path d="M0.0182322148,27.7142333 L0.0143530201,2.5095875 L7.48422718,0.255108333 L7.48422718,9.51931667 L15.6247171,9.51931667 L15.6247171,11.9601917 L7.48422718,11.9601917 L7.48422718,27.8805042 C7.48422718,30.8206708 8.43899396,32.2073792 10.6840779,32.2073792 C12.3686181,32.2073792 13.7714319,31.042525 15.0069554,28.7123375 L16.241994,29.4339625 C14.4454419,33.4278167 11.863353,35.4249833 7.70873557,35.4249833 C3.27433121,35.4249833 0.0182322148,33.31665 0.0182322148,27.7142333" id="Fill-7" fill="#27A9E1" mask="url(#mask-2)"></path>
                </g>
                <path d="M127.399977,26.4402729 L128.971535,26.4402729 C132.003126,31.4327104 135.09048,33.8735854 138.514839,33.8735854 C141.377685,33.8735854 142.837232,32.3757104 142.837232,30.3234396 C142.837232,27.8825646 141.096928,26.7732938 135.708242,25.2198354 C129.813806,23.5556896 127.456225,21.7252729 127.456225,17.6753562 C127.456225,12.5166479 131.610358,9.13277292 137.785066,9.13277292 C140.199379,9.13277292 142.612723,9.90950208 144.128519,10.8525021 L145.532302,9.13277292 L146.991364,9.13277292 L146.991364,17.3428146 L145.419806,17.3428146 C142.612723,13.1271062 140.423403,10.8525021 137.336049,10.8525021 C134.978468,10.8525021 133.293928,12.2947937 133.293928,14.5693979 C133.293928,16.8435229 135.539497,17.7865229 139.412873,18.7295229 C145.363557,20.2273979 148.50716,22.2796687 148.50716,26.8288771 C148.50716,31.8208354 144.353027,35.6488979 138.009574,35.6488979 C135.93275,35.6488979 132.115623,34.7058979 130.599827,33.7628979 L128.915772,35.6488979 L127.399977,35.6488979 L127.399977,26.4402729 Z" id="Fill-10" fill="#27A9E1"></path>
                <path d="M188.858494,33.9477604 C184.822677,33.9477604 183.029034,30.1259271 183.029034,22.3164687 C183.029034,14.5070104 184.37463,10.7407604 188.353713,10.7407604 C192.333767,10.7407604 194.126925,14.5070104 194.126925,22.3164687 C194.126925,30.1259271 192.726051,33.9477604 188.858494,33.9477604 M188.63447,9.02390625 C180.450824,9.02390625 175.070381,14.2856354 175.070381,22.4276354 C175.070381,30.6247396 180.114789,35.6646146 188.63447,35.6646146 C196.705135,35.6646146 202.142311,30.4028854 202.142311,22.2057812 C202.142311,14.0637812 196.985406,9.02390625 188.63447,9.02390625" id="Fill-12" fill="#000000"></path>
                <path d="M218.509166,33.9477604 C214.473349,33.9477604 212.679707,30.1259271 212.679707,22.3164687 C212.679707,14.5070104 214.025302,10.7407604 218.004386,10.7407604 C221.98444,10.7407604 223.777597,14.5070104 223.777597,22.3164687 C223.777597,30.1259271 222.376723,33.9477604 218.509166,33.9477604 M218.285143,9.02390625 C210.101497,9.02390625 204.721054,14.2856354 204.721054,22.4276354 C204.721054,30.6247396 209.765462,35.6646146 218.285143,35.6646146 C226.355807,35.6646146 231.792983,30.4028854 231.792983,22.2057812 C231.792983,14.0637812 226.636079,9.02390625 218.285143,9.02390625" id="Fill-14" fill="#000000"></path>
                <path d="M249.019081,33.7815854 C251.261255,33.7260021 251.821799,33.2276687 251.821799,31.7877729 L251.821799,18.3289396 C251.821799,15.0054396 250.5887,13.2885854 247.730218,13.2885854 C245.768315,13.2885854 244.591465,14.3408354 243.078094,15.8914187 L243.078094,31.7877729 C243.078094,33.2276687 243.582389,33.7260021 245.768315,33.7815854 L245.768315,35.1663771 L231.75618,35.1663771 L231.75618,33.7815854 C234.950696,33.7260021 235.623252,33.2276687 235.623252,31.7877729 L235.623252,14.0638771 C235.623252,12.4021271 234.950696,11.4054604 231.75618,11.3498771 L231.75618,9.96556458 L242.965597,9.46675208 L242.965597,14.3408354 C245.600055,11.4054604 248.683045,9.30048125 252.326094,9.30048125 C256.081154,9.30048125 258.323329,11.1836062 258.995884,14.6177937 C261.518331,11.6268354 264.993119,9.30048125 268.524156,9.30048125 C273.232529,9.30048125 275.474703,12.1251687 275.474703,17.3317937 L275.474703,31.7877729 C275.474703,33.2276687 276.09101,33.7260021 279.286012,33.7815854 L279.286012,35.1663771 L265.273391,35.1663771 L265.273391,33.7815854 C267.459317,33.7260021 268.019861,33.2276687 268.019861,31.7877729 L268.019861,18.3289396 C268.019861,15.0054396 266.955022,13.2885854 264.152789,13.2885854 C262.695181,13.2885854 260.789527,14.3964187 259.164144,16.1683771 C259.219908,16.6671896 259.276156,16.9441479 259.276156,17.2762104 L259.276156,31.7877729 C259.276156,33.2276687 259.8367,33.7260021 262.134638,33.7815854 L262.134638,35.1663771 L249.019081,35.1663771 L249.019081,33.7815854 Z" id="Fill-16" fill="#000000"></path>
                <g id="Group-20" transform="translate(281.241611, 28.015581)" fill="#000000">
                    <path d="M7.47923272,3.77822917 C7.50396258,4.99770833 6.93469077,5.91052083 6.00998775,6.56841667 C4.6731203,7.5195625 3.21017903,7.56077083 1.79427299,6.75960417 C0.159677349,5.83433333 -0.561367953,3.588 0.742526342,1.81795833 C2.01053809,0.0967916667 4.5295901,-0.1279375 6.06187198,1.01966667 C6.97299782,1.70152083 7.51123607,2.62870833 7.47923272,3.77822917" id="Fill-18"></path>
                </g>
                <path d="M169.778869,9.2991875 C166.754067,9.2991875 164.009052,11.4583125 162.104852,14.4473542 L162.104852,9.5205625 L150.901253,10.0188958 L150.901253,11.4027292 C154.094315,11.4583125 154.766386,12.4545 154.766386,14.1148125 L154.766386,31.8286458 C154.766386,33.2675833 154.094315,33.7659167 150.901253,33.8215 L150.901253,35.2048542 L167.258362,35.2048542 L167.258362,33.8215 C163.169206,33.7108125 162.216864,33.2675833 162.216864,31.8286458 L162.216864,16.1076667 C163.262792,14.6514792 164.671909,13.43775 166.13582,13.0347708 C166.104787,13.248 166.083936,13.4641042 166.083936,13.6859583 C166.083936,16.0952083 167.964376,18.0478125 170.284134,18.0478125 C172.604377,18.0478125 174.484332,16.0952083 174.484332,13.6859583 C174.484332,11.600625 173.092186,9.2991875 169.778869,9.2991875" id="Fill-21" fill="#000000"></path>
                <path d="M101.418828,9.2991875 C98.3940262,9.2991875 95.6490111,11.4583125 93.7448114,14.4473542 L93.7448114,9.5205625 L82.5412124,10.0188958 L82.5412124,11.4027292 C85.7342745,11.4583125 86.406345,12.4545 86.406345,14.1148125 L86.406345,31.8286458 C86.406345,33.2675833 85.7342745,33.7659167 82.5412124,33.8215 L82.5412124,35.2048542 L98.8983215,35.2048542 L98.8983215,33.8215 C94.8091654,33.7108125 93.8568232,33.2675833 93.8568232,31.8286458 L93.8568232,16.1076667 C94.902751,14.6514792 96.3118685,13.43775 97.7757795,13.0347708 C97.744746,13.248 97.7238953,13.4641042 97.7238953,13.6859583 C97.7238953,16.0952083 99.6043349,18.0478125 101.924093,18.0478125 C104.244337,18.0478125 106.124291,16.0952083 106.124291,13.6859583 C106.124291,11.600625 104.732145,9.2991875 101.418828,9.2991875" id="Fill-23" fill="#27A9E1"></path>
            </g>
        </g>
    </g>
</svg>

<?xml version="1.0" encoding="UTF-8" standalone="no"?>
<svg
   xmlns:dc="http://purl.org/dc/elements/1.1/"
   xmlns:cc="http://creativecommons.org/ns#"
   xmlns:rdf="http://www.w3.org/1999/02/22-rdf-syntax-ns#"
   xmlns:svg="http://www.w3.org/2000/svg"
   xmlns="http://www.w3.org/2000/svg"
   xmlns:xlink="http://www.w3.org/1999/xlink"
   xmlns:sodipodi="http://sodipodi.sourceforge.net/DTD/sodipodi-0.dtd"
   xmlns:inkscape="http://www.inkscape.org/namespaces/inkscape"
   width="288.7222"
   height="50.842571"
   viewBox="0 0 288.7222 50.842571"
   version="1.1"
   id="svg7030"
   inkscape:version="0.91 r13725"
   sodipodi:docname="sports-room-logo-header.svg">
  <metadata
     id="metadata7061">
    <rdf:RDF>
      <cc:Work
         rdf:about="">
        <dc:format>image/svg+xml</dc:format>
        <dc:type
           rdf:resource="http://purl.org/dc/dcmitype/StillImage" />
        <dc:title>4393F04C-D5D2-46EE-AA00-17098240BBA0</dc:title>
      </cc:Work>
    </rdf:RDF>
  </metadata>
  <sodipodi:namedview
     pagecolor="#ffffff"
     bordercolor="#666666"
     borderopacity="1"
     objecttolerance="10"
     gridtolerance="10"
     guidetolerance="10"
     inkscape:pageopacity="0"
     inkscape:pageshadow="2"
     inkscape:window-width="640"
     inkscape:window-height="480"
     id="namedview7059"
     showgrid="false"
     fit-margin-top="0"
     fit-margin-left="0"
     fit-margin-right="0"
     fit-margin-bottom="0"
     inkscape:zoom="2.9116162"
     inkscape:cx="58.070533"
     inkscape:cy="23.349301"
     inkscape:current-layer="svg7030" />
  <!-- Generator: sketchtool 42 (36781) - http://www.bohemiancoding.com/sketch -->
  <title
     id="title7032">4393F04C-D5D2-46EE-AA00-17098240BBA0</title>
  <desc
     id="desc7034">Created with sketchtool.</desc>
  <defs
     id="defs7036">
    <polygon
       id="path-1"
       points="16.241994,35.424983 0.01435302,35.424983 0.01435302,0.25539583 0.01435302,0.25539583 16.241994,0.25539583 " />
    <mask
       id="mask-2-5"
       fill="white">
      <use
         height="100%"
         width="100%"
         y="0"
         x="0"
         xlink:href="#path-1"
         id="use5881" />
    </mask>
    <mask
       id="mask-4"
       fill="white">
      <use
         height="100%"
         width="100%"
         y="0"
         x="0"
         xlink:href="#path-3"
         id="use5887" />
    </mask>
  </defs>
  <g
     id="Desktop"
     style="fill:none;fill-rule:evenodd;stroke:none;stroke-width:1"
     transform="translate(0,4.4932697)">
    <g
       id="Desktop---Homepage"
       transform="translate(-379,-6241)">
      <g
         id="Sports-room-logo-header"
         transform="translate(379,6241)">
        <path
           d="m 0,26.440273 1.5715587,0 c 3.0315906,4.992437 6.1189447,7.433312 9.5433033,7.433312 2.862846,0 4.322393,-1.497875 4.322393,-3.550145 0,-2.440875 -1.740304,-3.550146 -7.1289899,-5.103605 -5.8944362,-1.664145 -8.25201678,-3.494562 -8.25201678,-7.544479 0,-5.158708 4.15413258,-8.5425831 10.32884068,-8.5425831 2.414314,0 4.827658,0.7767292 6.343453,1.7197291 l 1.403783,-1.7197291 1.459063,0 0,8.2100421 -1.571559,0 c -2.807082,-4.215709 -4.996403,-6.490313 -8.0837569,-6.490313 -2.3575805,0 -4.0421208,1.442292 -4.0421208,3.716896 0,2.274125 2.2455688,3.217125 6.1189447,4.160125 5.950684,1.497875 9.094287,3.550146 9.094287,8.099354 0,4.991958 -4.154133,8.820021 -10.497586,8.820021 -2.0768235,0 -5.893951,-0.943 -7.4097463,-1.886 l -1.6840554,1.886 -1.5157953,0 0,-9.208625 z"
           id="Fill-1"
           inkscape:connector-curvature="0"
           style="fill:#27a9e1" />
        <path
           d="m 44.402862,22.3353 c 0,-5.82475 -1.852315,-9.984875 -5.838188,-9.984875 -1.684055,0 -3.199851,0.721146 -4.827658,1.997167 l 0,15.809145 c 1.179275,2.773896 3.031591,3.716896 5.220911,3.716896 3.312348,0 5.444935,-3.494562 5.444935,-11.538333 l 0,0 z M 22.453409,44.3578 c 3.200335,-0.05558 3.817612,-0.554396 3.817612,-1.997167 l 0,-28.290958 c 0,-1.664146 -0.673525,-2.66225 -3.873376,-2.717833 l 0,-1.3867087 11.226875,-0.4992916 0,3.3838753 c 2.526325,-2.163438 5.052651,-3.7168962 8.308265,-3.7168962 6.62421,0 10.385089,5.2147712 10.385089,12.8699372 0,7.432834 -4.322393,13.590604 -11.900885,13.590604 -2.6941,0 -4.714676,-0.499291 -6.679973,-1.387187 l 0,8.154458 c 0,1.442771 1.01053,1.886479 5.27716,1.997167 l 0,1.386708 -16.560767,0 0,-1.386708 z"
           id="Fill-3"
           inkscape:connector-curvature="0"
           style="fill:#27a9e1" />
        <path
           d="m 74.042818,22.3353 c 0,-7.821437 -1.796552,-11.593437 -5.781939,-11.593437 -3.985873,0 -5.332923,3.772 -5.332923,11.593437 0,7.821437 1.796067,11.6495 5.837703,11.6495 3.873376,0 5.277159,-3.828063 5.277159,-11.6495 m -19.086122,0.110687 c 0,-8.153979 5.388686,-13.4238537 13.584454,-13.4238537 8.364514,0 13.529177,5.0475417 13.529177,13.2024787 0,8.209563 -5.44542,13.479438 -13.529177,13.479438 -8.532288,0 -13.584454,-5.048021 -13.584454,-13.258063"
           id="Fill-5"
           inkscape:connector-curvature="0"
           style="fill:#27a9e1" />
        <g
           id="Group-9"
           transform="translate(109.10235,0.223915)">
          <mask
             id="mask-2"
             fill="white">
            <use
               xlink:href="#path-1"
               id="use7047"
               x="0"
               y="0"
               width="100%"
               height="100%" />
          </mask>
          <g
             id="Clip-8" />
          <path
             d="M 0.01823221,27.714233 0.01435302,2.5095875 7.4842272,0.25510833 l 0,9.26420837 8.1404898,0 0,2.4408753 -8.1404898,0 0,15.920312 c 0,2.940167 0.9547668,4.326875 3.1998508,4.326875 1.68454,0 3.087354,-1.164854 4.322877,-3.495042 l 1.235039,0.721625 c -1.796552,3.993855 -4.378641,5.991021 -8.5332584,5.991021 -4.4344044,0 -7.69050339,-2.108333 -7.69050339,-7.71075"
             id="Fill-7"
             mask="url(#mask-2)"
             inkscape:connector-curvature="0"
             style="fill:#27a9e1" />
        </g>
        <path
           d="m 127.39998,26.440273 1.57155,0 c 3.0316,4.992437 6.11895,7.433312 9.54331,7.433312 2.86285,0 4.32239,-1.497875 4.32239,-3.550145 0,-2.440875 -1.7403,-3.550146 -7.12899,-5.103605 -5.89443,-1.664145 -8.25201,-3.494562 -8.25201,-7.544479 0,-5.158708 4.15413,-8.5425831 10.32884,-8.5425831 2.41431,0 4.82765,0.7767292 6.34345,1.7197291 l 1.40378,-1.7197291 1.45906,0 0,8.2100421 -1.57155,0 c -2.80709,-4.215709 -4.99641,-6.490313 -8.08376,-6.490313 -2.35758,0 -4.04212,1.442292 -4.04212,3.716896 0,2.274125 2.24557,3.217125 6.11894,4.160125 5.95069,1.497875 9.09429,3.550146 9.09429,8.099354 0,4.991958 -4.15413,8.820021 -10.49759,8.820021 -2.07682,0 -5.89395,-0.943 -7.40974,-1.886 l -1.68406,1.886 -1.51579,0 0,-9.208625 z"
           id="Fill-10"
           inkscape:connector-curvature="0"
           style="fill:#27a9e1" />
        <path
           d="m 188.85849,33.94776 c -4.03581,0 -5.82946,-3.821833 -5.82946,-11.631291 0,-7.809459 1.3456,-11.575709 5.32468,-11.575709 3.98006,0 5.77321,3.76625 5.77321,11.575709 0,7.809458 -1.40087,11.631291 -5.26843,11.631291 M 188.63447,9.0239063 c -8.18365,0 -13.56409,5.2617287 -13.56409,13.4037287 0,8.197105 5.04441,13.23698 13.56409,13.23698 8.07067,0 13.50784,-5.26173 13.50784,-13.458834 0,-8.142 -5.1569,-13.1818747 -13.50784,-13.1818747"
           id="Fill-12"
           inkscape:connector-curvature="0"
           style="fill:#000000" />
        <path
           d="m 218.50917,33.94776 c -4.03582,0 -5.82946,-3.821833 -5.82946,-11.631291 0,-7.809459 1.34559,-11.575709 5.32468,-11.575709 3.98005,0 5.77321,3.76625 5.77321,11.575709 0,7.809458 -1.40088,11.631291 -5.26843,11.631291 M 218.28514,9.0239063 c -8.18364,0 -13.56409,5.2617287 -13.56409,13.4037287 0,8.197105 5.04441,13.23698 13.56409,13.23698 8.07067,0 13.50784,-5.26173 13.50784,-13.458834 0,-8.142 -5.1569,-13.1818747 -13.50784,-13.1818747"
           id="Fill-14"
           inkscape:connector-curvature="0"
           style="fill:#000000" />
        <path
           d="m 249.01908,33.781585 c 2.24217,-0.05558 2.80272,-0.553916 2.80272,-1.993812 l 0,-13.458833 c 0,-3.3235 -1.2331,-5.040355 -4.09158,-5.040355 -1.96191,0 -3.13876,1.05225 -4.65213,2.602834 l 0,15.896354 c 0,1.439896 0.5043,1.938229 2.69022,1.993812 l 0,1.384792 -14.01213,0 0,-1.384792 c 3.19452,-0.05558 3.86707,-0.553916 3.86707,-1.993812 l 0,-17.723896 c 0,-1.66175 -0.67255,-2.658417 -3.86707,-2.714 l 0,-1.3843124 11.20942,-0.4988125 0,4.8740829 c 2.63445,-2.935375 5.71744,-5.0403537 9.36049,-5.0403537 3.75506,0 5.99724,1.8831247 6.66979,5.3173127 2.52245,-2.990959 5.99724,-5.3173127 9.52828,-5.3173127 4.70837,0 6.95054,2.8246877 6.95054,8.0313127 l 0,14.455979 c 0,1.439896 0.61631,1.938229 3.81131,1.993812 l 0,1.384792 -14.01262,0 0,-1.384792 c 2.18593,-0.05558 2.74647,-0.553916 2.74647,-1.993812 l 0,-13.458833 c 0,-3.3235 -1.06484,-5.040355 -3.86707,-5.040355 -1.45761,0 -3.36326,1.107834 -4.98865,2.879792 0.0558,0.498813 0.11202,0.775771 0.11202,1.107833 l 0,14.511563 c 0,1.439896 0.56054,1.938229 2.85848,1.993812 l 0,1.384792 -13.11556,0 0,-1.384792 z"
           id="Fill-16"
           inkscape:connector-curvature="0"
           style="fill:#000000" />
        <g
           id="Group-20"
           transform="translate(281.24161,28.015581)"
           style="fill:#000000">
          <path
             d="M 7.4792327,3.7782292 C 7.5039626,4.9977083 6.9346908,5.9105208 6.0099877,6.5684167 4.6731203,7.5195625 3.210179,7.5607708 1.794273,6.7596042 0.15967735,5.8343333 -0.56136795,3.588 0.74252634,1.8179583 2.0105381,0.09679167 4.5295901,-0.1279375 6.061872,1.0196667 6.9729978,1.7015208 7.5112361,2.6287083 7.4792327,3.7782292"
             id="Fill-18"
             inkscape:connector-curvature="0" />
        </g>
        <path
           d="m 169.77887,9.2991875 c -3.0248,0 -5.76982,2.1591255 -7.67402,5.1481665 l 0,-4.9267915 -11.2036,0.4983335 0,1.383833 c 3.19306,0.05558 3.86514,1.051771 3.86514,2.712083 l 0,17.713834 c 0,1.438937 -0.67208,1.937271 -3.86514,1.992854 l 0,1.383354 16.35711,0 0,-1.383354 c -4.08915,-0.110687 -5.0415,-0.553917 -5.0415,-1.992854 l 0,-15.720979 c 1.04593,-1.456188 2.45505,-2.669917 3.91896,-3.072896 -0.031,0.213229 -0.0519,0.429333 -0.0519,0.651187 0,2.40925 1.88044,4.361854 4.20019,4.361854 2.32025,0 4.2002,-1.952604 4.2002,-4.361854 0,-2.085333 -1.39214,-4.3867705 -4.70546,-4.3867705"
           id="Fill-21"
           inkscape:connector-curvature="0"
           style="fill:#000000" />
        <path
           d="m 101.41883,9.2991875 c -3.024804,0 -5.769819,2.1591255 -7.674019,5.1481665 l 0,-4.9267915 -11.203599,0.4983335 0,1.383833 c 3.193062,0.05558 3.865133,1.051771 3.865133,2.712083 l 0,17.713834 c 0,1.438937 -0.672071,1.937271 -3.865133,1.992854 l 0,1.383354 16.357109,0 0,-1.383354 c -4.089156,-0.110687 -5.041498,-0.553917 -5.041498,-1.992854 l 0,-15.720979 c 1.045928,-1.456188 2.455046,-2.669917 3.918956,-3.072896 -0.03103,0.213229 -0.05188,0.429333 -0.05188,0.651187 0,2.40925 1.88044,4.361854 4.200191,4.361854 2.32025,0 4.2002,-1.952604 4.2002,-4.361854 0,-2.085333 -1.39214,-4.3867705 -4.70546,-4.3867705"
           id="Fill-23"
           inkscape:connector-curvature="0"
           style="fill:#27a9e1" />
      </g>
    </g>
  </g>
</svg>
